; generated by PrusaSlicer 2.7.4 on 2024-09-12 at 06:01:16 UTC


;
;

;
;

;
;

;
;
; 

; external perimeters extrusion width = 0.45mm
; perimeters extrusion width = 0.45mm
; infill extrusion width = 0.45mm
; solid infill extrusion width = 0.45mm
; top infill extrusion width = 0.40mm
; support material extrusion width = 0.35mm
; first layer extrusion width = 0.42mm

M73 P0 R138
M201 X2500 Y2500 Z400 E5000 ; sets maximum accelerations, mm/sec^2
M203 X180 Y180 Z12 E80 ; sets maximum feedrates, mm / sec
M204 P2000 R1250 T2500 ; sets acceleration (P, T) and retract acceleration (R), mm/sec^2
M205 X8.00 Y8.00 Z2.00 E10.00 ; sets the jerk limits, mm/sec
M205 S0 T0 ; sets the minimum extruding and travel feed rate, mm/sec

M486 S0
M486 ASolarPanelMount.stl
M486 S-1

;TYPE:Custom
M862.3 P "MINI" ; printer model check
G90 ; use absolute coordinates
M83 ; extruder relative mode
M104 S170 ; set extruder temp for bed leveling
M140 S60 ; set bed temp
M109 R170 ; wait for bed leveling temp
M190 S60 ; wait for bed temp
M204 T1250 ; set travel acceleration
G28 ; home all without mesh bed level
G29 ; mesh bed leveling 
M204 T2500 ; restore travel acceleration
M104 S215 ; set extruder temp
G92 E0
G1 Y-2 X179 F2400
G1 Z3 F720
M109 S215 ; wait for extruder temp

; intro line
G1 X170 F1000
G1 Z0.2 F720
G1 X110 E8 F900
G1 X40 E10 F700
G92 E0

M221 S95 ; set flow
G21 ; set units to millimeters
G90 ; use absolute coordinates
M83 ; use relative distances for extrusion

M900 K0.2 ; Filament gcode LA 1.5
; ; Filament gcode LA 1.0




M107
;LAYER_CHANGE
;Z:0.2
;HEIGHT:0.2
G1 E-3.2 F4200
G1 Z.4 F720
G1 X27.921 Y33.999 F9000
G1 Z.2 F720
G1 E3.2 F2400
M204 P600
;TYPE:Skirt/Brim
;WIDTH:0.42
G1 F1200
G1 X35.98 Y29.363 E.29151
G1 X37.165 Y29.047 E.03845
G1 X44.275 Y29.047 E.22293
G1 X45.262 Y29.261 E.03167
G1 X151.881 Y77.935 E3.67485
G1 X152.908 Y78.834 E.0428
G1 X153.271 Y80.098 E.04123
G1 X153.271 Y99.902 E.62094
G1 X152.88 Y101.209 E.04277
G1 X151.881 Y102.065 E.04125
G1 X45.262 Y150.739 E3.67485
G1 X44.275 Y150.953 E.03167
G1 X37.165 Y150.953 E.22293
G1 X35.98 Y150.637 E.03845
G1 X27.921 Y146.001 E.29151
G1 X26.983 Y145.01 E.04278
G1 X26.729 Y143.941 E.03445
G1 X26.729 Y36.059 E3.38256
G1 X27.12 Y34.752 E.04277
G1 X27.877 Y34.04 E.03258
M204 P1000
G1 E-2.24 F4200
;WIPE_START
G1 F7200
G1 X27.921 Y33.999 E-.03333
G1 X29.37 Y33.165 E-.92667
;WIPE_END
G1 Z.4 F720
M486 S0
G1 X143.334 Y96.953 F9000
G1 Z.2 F720
G1 E3.2 F2400
M204 P600
;TYPE:Support material interface
;WIDTH:0.35
G1 F1200
G1 X143.334 Y95.679 E.03253
G1 X143.852 Y95.679 E.01323
G1 X143.852 Y96.953 E.03253
G1 X144.37 Y96.953 E.01323
G1 X144.37 Y95.679 E.03253
G1 X144.888 Y95.679 E.01323
G1 X144.888 Y96.953 E.03253
G1 X145.406 Y96.953 E.01323
G1 X145.406 Y83.047 E.35507
G1 X144.888 Y83.047 E.01323
G1 X144.888 Y84.321 E.03253
G1 X144.37 Y84.321 E.01323
G1 X144.37 Y83.047 E.03253
G1 X143.852 Y83.047 E.01323
G1 X143.852 Y84.321 E.03253
G1 X143.334 Y84.321 E.01323
G1 X143.334 Y83.047 E.03253
M204 P1000
G1 E-2.24 F4200
;WIPE_START
G1 F7200
G1 X143.334 Y84.321 E-.70601
G1 X143.792 Y84.321 E-.25399
;WIPE_END
G1 Z.4 F720
G1 X145.031 Y84.725 F9000
G1 Z.2 F720
G1 E3.2 F2400
M204 P600
;TYPE:Support material
;WIDTH:0.42
G1 F1200
G1 X145.031 Y88.525 E.11915
G1 X144.418 Y88.56 E.01925
G1 X144.418 Y84.69 E.12134
G1 X144.989 Y84.69 E.0179
M204 P1000
G1 E-2.24 F4200
;WIPE_START
G1 F7200
G1 X144.418 Y84.69 E-.31643
G1 X144.418 Y85.851 E-.64357
;WIPE_END
G1 Z.4 F720
G1 X145.151 Y88.926 F9000
G1 Z.2 F720
G1 E3.2 F2400
M204 P600
;TYPE:Support material interface
;WIDTH:0.35
G1 F1200
G1 X144.888 Y88.929 E.00672
G1 X144.888 Y91.071 E.05469
G1 X144.37 Y91.071 E.01323
G1 X144.37 Y88.929 E.05469
G1 X143.852 Y88.929 E.01323
G1 X143.852 Y91.071 E.05469
G1 X143.334 Y91.071 E.01323
G1 X143.334 Y88.929 E.05469
M204 P1000
G1 X143.334 Y88.929 F9000
G1 X142.919 Y88.98
M204 P600
;TYPE:Support material
;WIDTH:0.42
G1 F1200
G1 X142.941 Y91.02 E.06397
G1 X133.407 Y91.02 E.29893
G1 X133.407 Y88.98 E.06396
G1 X142.862 Y88.98 E.29645
M204 P1000
G1 X142.862 Y88.98 F9000
G1 X142.372 Y90.85
M204 P600
G1 F1200
G1 X142.372 Y89.319 E.048
G1 X141.953 Y89.319 E.01314
G1 X141.953 Y90.681 E.0427
G1 X141.534 Y90.681 E.01314
G1 X141.534 Y89.319 E.0427
G1 X141.115 Y89.319 E.01314
G1 X141.115 Y90.681 E.0427
G1 X140.696 Y90.681 E.01314
G1 X140.696 Y89.319 E.0427
G1 X140.277 Y89.319 E.01314
G1 X140.277 Y90.681 E.0427
G1 X139.858 Y90.681 E.01314
G1 X139.858 Y89.319 E.0427
G1 X139.439 Y89.319 E.01314
G1 X139.439 Y90.681 E.0427
G1 X139.02 Y90.681 E.01314
G1 X139.02 Y89.319 E.0427
G1 X138.601 Y89.319 E.01314
G1 X138.601 Y90.681 E.0427
G1 X138.182 Y90.681 E.01314
G1 X138.182 Y89.319 E.0427
G1 X137.763 Y89.319 E.01314
G1 X137.763 Y90.681 E.0427
G1 X137.344 Y90.681 E.01314
G1 X137.344 Y89.319 E.0427
G1 X136.925 Y89.319 E.01314
G1 X136.925 Y90.681 E.0427
G1 X136.506 Y90.681 E.01314
G1 X136.506 Y89.319 E.0427
G1 X136.087 Y89.319 E.01314
G1 X136.087 Y90.681 E.0427
G1 X135.668 Y90.681 E.01314
G1 X135.668 Y89.319 E.0427
G1 X135.25 Y89.319 E.01311
G1 X135.25 Y90.681 E.0427
G1 X134.831 Y90.681 E.01314
G1 X134.831 Y89.319 E.0427
G1 X134.412 Y89.319 E.01314
G1 X134.412 Y90.681 E.0427
G1 X133.993 Y90.681 E.01314
G1 X133.993 Y89.15 E.048
M204 P1000
G1 E-2.24 F4200
;WIPE_START
G1 F7200
G1 X133.993 Y90.681 E-.84843
G1 X134.194 Y90.681 E-.11157
;WIPE_END
G1 Z.4 F720
G1 X145.031 Y91.475 F9000
G1 Z.2 F720
G1 E3.2 F2400
M204 P600
G1 F1200
G1 X145.031 Y95.275 E.11915
G1 X144.418 Y95.31 E.01925
G1 X144.418 Y91.44 E.12134
G1 X144.989 Y91.44 E.0179
M204 P1000
G1 E-2.24 F4200
;WIPE_START
G1 F7200
G1 X144.418 Y91.44 E-.31643
G1 X144.418 Y92.601 E-.64357
;WIPE_END
G1 Z.4 F720
G1 X150.894 Y99.902 F9000
G1 Z.2 F720
G1 E3.2 F2400
M204 P600
G1 F1200
G1 X133.407 Y99.902 E.54829
G1 X133.407 Y95.73 E.13081
G1 X142.941 Y95.73 E.29893
G1 X142.941 Y97.322 E.04992
G1 X145.996 Y97.322 E.09579
G1 X145.996 Y82.678 E.45915
G1 X142.941 Y82.678 E.09579
G1 X142.941 Y84.27 E.04992
G1 X133.407 Y84.27 E.29893
G1 X133.407 Y80.098 E.13081
G1 X150.894 Y80.098 E.54829
G1 X150.894 Y99.846 E.61918
M204 P1000
G1 X150.894 Y99.846 F9000
G1 X150.333 Y99.733
M204 P600
G1 F1200
G1 X150.333 Y80.437 E.60501
G1 X149.914 Y80.437 E.01314
G1 X149.914 Y99.563 E.59968
G1 X149.495 Y99.563 E.01314
G1 X149.495 Y80.437 E.59968
G1 X149.076 Y80.437 E.01314
G1 X149.076 Y99.563 E.59968
G1 X148.657 Y99.563 E.01314
G1 X148.657 Y80.437 E.59968
G1 X148.238 Y80.437 E.01314
M73 P0 R137
G1 X148.238 Y99.563 E.59968
G1 X147.819 Y99.563 E.01314
G1 X147.819 Y80.437 E.59968
G1 X147.4 Y80.437 E.01314
G1 X147.4 Y99.563 E.59968
G1 X146.981 Y99.563 E.01314
G1 X146.981 Y80.437 E.59968
G1 X146.562 Y80.437 E.01314
G1 X146.562 Y99.563 E.59968
G1 X146.143 Y99.563 E.01314
G1 X146.143 Y97.662 E.0596
G1 X145.724 Y97.662 E.01314
G1 X145.724 Y99.563 E.0596
G1 X145.305 Y99.563 E.01314
G1 X145.305 Y97.662 E.0596
G1 X144.886 Y97.662 E.01314
G1 X144.886 Y99.563 E.0596
G1 X144.467 Y99.563 E.01314
G1 X144.467 Y97.662 E.0596
G1 X144.048 Y97.662 E.01314
G1 X144.048 Y99.563 E.0596
G1 X143.629 Y99.563 E.01314
G1 X143.629 Y97.662 E.0596
G1 X143.21 Y97.662 E.01314
G1 X143.21 Y99.563 E.0596
G1 X142.791 Y99.563 E.01314
G1 X142.791 Y97.662 E.0596
G1 X142.601 Y97.662 E.00596
G1 X142.601 Y96.069 E.04995
G1 X142.372 Y96.069 E.00718
G1 X142.372 Y99.563 E.10955
G1 X141.953 Y99.563 E.01314
G1 X141.953 Y96.069 E.10955
G1 X141.534 Y96.069 E.01314
G1 X141.534 Y99.563 E.10955
G1 X141.115 Y99.563 E.01314
G1 X141.115 Y96.069 E.10955
G1 X140.696 Y96.069 E.01314
G1 X140.696 Y99.563 E.10955
G1 X140.277 Y99.563 E.01314
G1 X140.277 Y96.069 E.10955
G1 X139.858 Y96.069 E.01314
G1 X139.858 Y99.563 E.10955
G1 X139.439 Y99.563 E.01314
G1 X139.439 Y96.069 E.10955
G1 X139.02 Y96.069 E.01314
G1 X139.02 Y99.563 E.10955
G1 X138.601 Y99.563 E.01314
G1 X138.601 Y96.069 E.10955
G1 X138.182 Y96.069 E.01314
G1 X138.182 Y99.563 E.10955
G1 X137.763 Y99.563 E.01314
G1 X137.763 Y96.069 E.10955
G1 X137.344 Y96.069 E.01314
G1 X137.344 Y99.563 E.10955
G1 X136.925 Y99.563 E.01314
G1 X136.925 Y96.069 E.10955
G1 X136.506 Y96.069 E.01314
G1 X136.506 Y99.563 E.10955
G1 X136.087 Y99.563 E.01314
G1 X136.087 Y96.069 E.10955
G1 X135.668 Y96.069 E.01314
G1 X135.668 Y99.563 E.10955
G1 X135.25 Y99.563 E.01311
G1 X135.25 Y96.069 E.10955
G1 X134.831 Y96.069 E.01314
G1 X134.831 Y99.563 E.10955
G1 X134.412 Y99.563 E.01314
G1 X134.412 Y96.069 E.10955
G1 X133.993 Y96.069 E.01314
G1 X133.993 Y99.733 E.11488
M204 P1000
G1 E-2.24 F4200
;WIPE_START
G1 F7200
G1 X133.993 Y98.001 E-.96
;WIPE_END
G1 Z.4 F720
G1 X146.143 Y82.508 F9000
G1 Z.2 F720
G1 E3.2 F2400
M204 P600
G1 F1200
G1 X146.143 Y80.437 E.06493
G1 X145.724 Y80.437 E.01314
G1 X145.724 Y82.338 E.0596
G1 X145.305 Y82.338 E.01314
G1 X145.305 Y80.437 E.0596
G1 X144.886 Y80.437 E.01314
G1 X144.886 Y82.338 E.0596
G1 X144.467 Y82.338 E.01314
G1 X144.467 Y80.437 E.0596
G1 X144.048 Y80.437 E.01314
G1 X144.048 Y82.338 E.0596
G1 X143.629 Y82.338 E.01314
G1 X143.629 Y80.437 E.0596
G1 X143.21 Y80.437 E.01314
G1 X143.21 Y82.338 E.0596
G1 X142.791 Y82.338 E.01314
G1 X142.791 Y80.437 E.0596
G1 X142.372 Y80.437 E.01314
G1 X142.372 Y83.931 E.10955
G1 X141.953 Y83.931 E.01314
G1 X141.953 Y80.437 E.10955
G1 X141.534 Y80.437 E.01314
G1 X141.534 Y83.931 E.10955
G1 X141.115 Y83.931 E.01314
G1 X141.115 Y80.437 E.10955
G1 X140.696 Y80.437 E.01314
G1 X140.696 Y83.931 E.10955
G1 X140.277 Y83.931 E.01314
G1 X140.277 Y80.437 E.10955
G1 X139.858 Y80.437 E.01314
G1 X139.858 Y83.931 E.10955
G1 X139.439 Y83.931 E.01314
G1 X139.439 Y80.437 E.10955
G1 X139.02 Y80.437 E.01314
G1 X139.02 Y83.931 E.10955
G1 X138.601 Y83.931 E.01314
G1 X138.601 Y80.437 E.10955
G1 X138.182 Y80.437 E.01314
G1 X138.182 Y83.931 E.10955
G1 X137.763 Y83.931 E.01314
G1 X137.763 Y80.437 E.10955
G1 X137.344 Y80.437 E.01314
G1 X137.344 Y83.931 E.10955
G1 X136.925 Y83.931 E.01314
G1 X136.925 Y80.437 E.10955
G1 X136.506 Y80.437 E.01314
G1 X136.506 Y83.931 E.10955
G1 X136.087 Y83.931 E.01314
G1 X136.087 Y80.437 E.10955
G1 X135.668 Y80.437 E.01314
G1 X135.668 Y83.931 E.10955
G1 X135.25 Y83.931 E.01311
G1 X135.25 Y80.437 E.10955
G1 X134.831 Y80.437 E.01314
G1 X134.831 Y83.931 E.10955
G1 X134.412 Y83.931 E.01314
G1 X134.412 Y80.437 E.10955
G1 X133.993 Y80.437 E.01314
G1 X133.993 Y84.1 E.11485
M204 P1000
G1 E-2.24 F4200
;WIPE_START
G1 F7200
G1 X133.993 Y82.368 E-.96
;WIPE_END
G1 Z.4 F720
G1 X67.453 Y72.089 F9000
G1 Z.2 F720
G1 E3.2 F2400
M204 P600
G1 F1200
G1 X66.504 Y72.089 E.02976
G1 X59.128 Y61.555 E.40321
G1 X67.453 Y61.555 E.26102
G1 X67.453 Y72.032 E.3285
M204 P1000
G1 X66.956 Y71.919 F9000
M204 P600
G1 F1200
G1 X66.956 Y61.895 E.3143
G1 X66.537 Y61.895 E.01314
G1 X66.537 Y71.545 E.30257
G1 X66.118 Y70.946 E.02292
G1 X66.118 Y61.895 E.28379
G1 X65.699 Y61.895 E.01314
G1 X65.699 Y70.348 E.26504
G1 X65.28 Y69.75 E.02289
G1 X65.28 Y61.895 E.24629
G1 X64.861 Y61.895 E.01314
G1 X64.861 Y69.151 E.22751
G1 X64.442 Y68.553 E.02289
G1 X64.442 Y61.895 E.20876
G1 X64.023 Y61.895 E.01314
G1 X64.023 Y67.954 E.18998
G1 X63.604 Y67.356 E.02289
G1 X63.604 Y61.895 E.17123
G1 X63.185 Y61.895 E.01314
G1 X63.185 Y66.758 E.15248
G1 X62.766 Y66.159 E.02292
G1 X62.766 Y61.895 E.13369
G1 X62.348 Y61.895 E.01311
G1 X62.348 Y65.561 E.11494
G1 X61.929 Y64.963 E.02289
G1 X61.929 Y61.895 E.09619
G1 X61.51 Y61.895 E.01314
G1 X61.51 Y64.364 E.07741
G1 X61.091 Y63.766 E.02289
G1 X61.091 Y61.895 E.05866
G1 X60.672 Y61.895 E.01314
G1 X60.672 Y63.168 E.03991
G3 X60.253 Y61.895 I.942 J-1.016 E.04386
G1 X59.834 Y61.895 E.01314
G1 X59.834 Y62.267 E.01166
M204 P1000
G1 E-2.24 F4200
;WIPE_START
G1 F7200
G1 X59.834 Y61.895 E-.20615
G1 X60.253 Y61.895 E-.2322
G2 X60.394 Y62.808 I1.361 J.257 E-.52165
;WIPE_END
G1 Z.4 F720
G1 X57.369 Y74.998 F9000
G1 Z.2 F720
G1 E3.2 F2400
M204 P600
G1 F1200
G1 X57.477 Y75.151 E.00587
G1 X57.477 Y76.724 E.04932
G1 X52.284 Y76.724 E.16282
G1 X52.284 Y74.406 E.07268
G1 X49.966 Y74.406 E.07268
G1 X49.966 Y66.191 E.25758
G1 X51.202 Y66.191 E.03875
M73 P1 R137
G1 X57.337 Y74.952 E.33535
M204 P1000
G1 X57.337 Y74.952 F9000
G1 X56.901 Y76.554
M204 P600
G1 F1200
G1 X56.901 Y74.921 E.0512
G1 X56.482 Y74.322 E.02292
G1 X56.482 Y76.385 E.06468
G1 X56.063 Y76.385 E.01314
G1 X56.063 Y73.724 E.08343
G1 X55.644 Y73.126 E.02289
G1 X55.644 Y76.385 E.10218
G1 X55.225 Y76.385 E.01314
G1 X55.225 Y72.527 E.12096
G1 X54.806 Y71.929 E.02289
G1 X54.806 Y76.385 E.13971
G1 X54.387 Y76.385 E.01314
G1 X54.387 Y71.331 E.15846
G1 X53.968 Y70.732 E.02292
G1 X53.968 Y76.385 E.17725
G1 X53.549 Y76.385 E.01314
G1 X53.549 Y70.134 E.196
G1 X53.13 Y69.536 E.02289
G1 X53.13 Y76.385 E.21475
G1 X52.711 Y76.385 E.01314
G1 X52.711 Y68.937 E.23353
G1 X52.292 Y68.339 E.02289
G1 X52.292 Y74.067 E.1796
G1 X51.873 Y74.067 E.01314
G1 X51.873 Y67.741 E.19835
G1 X51.454 Y67.142 E.02292
G1 X51.454 Y74.067 E.21713
G1 X51.035 Y74.067 E.01314
G1 X51.026 Y66.53 E.23632
G1 X50.616 Y66.53 E.01286
G1 X50.616 Y74.237 E.24165
M204 P1000
G1 E-2.24 F4200
;WIPE_START
G1 F7200
G1 X50.616 Y72.505 E-.96
;WIPE_END
G1 Z.4 F720
G1 X57.477 Y104.849 F9000
G1 Z.2 F720
G1 E3.2 F2400
M204 P600
G1 F1200
G1 X51.202 Y113.809 E.34298
G1 X49.966 Y113.809 E.03875
G1 X49.966 Y105.594 E.25758
G1 X52.284 Y105.594 E.07268
G1 X52.284 Y103.276 E.07268
G1 X57.477 Y103.276 E.16282
G1 X57.477 Y104.792 E.04753
M204 P1000
G1 X57.477 Y104.792 F9000
G1 X56.901 Y105.375
M204 P600
G1 F1200
G1 X56.901 Y103.615 E.05518
G1 X56.482 Y103.615 E.01314
G1 X56.482 Y105.678 E.06468
G1 X56.063 Y106.276 E.02289
G1 X56.063 Y103.615 E.08343
G1 X55.644 Y103.615 E.01314
G1 X55.644 Y106.874 E.10218
G1 X55.225 Y107.473 E.02292
G1 X55.225 Y103.615 E.12096
G1 X54.806 Y103.615 E.01314
G1 X54.806 Y108.071 E.13971
G1 X54.387 Y108.669 E.02289
G1 X54.387 Y103.615 E.15846
G1 X53.968 Y103.615 E.01314
G1 X53.968 Y109.268 E.17725
G1 X53.549 Y109.866 E.02289
G1 X53.549 Y103.615 E.196
G1 X53.13 Y103.615 E.01314
G1 X53.13 Y110.464 E.21475
G1 X52.711 Y111.063 E.02292
G1 X52.711 Y103.615 E.23353
G1 X52.623 Y103.615 E.00276
G1 X52.623 Y105.933 E.07268
G1 X52.292 Y105.933 E.01038
G1 X52.292 Y111.661 E.1796
G1 X51.873 Y112.259 E.02289
G1 X51.873 Y105.933 E.19835
G1 X51.454 Y105.933 E.01314
G1 X51.454 Y112.858 E.21713
G1 X51.035 Y113.456 E.02289
G1 X51.035 Y105.933 E.23588
G1 X50.616 Y105.933 E.01314
G1 X50.616 Y113.639 E.24162
M204 P1000
G1 E-2.24 F4200
;WIPE_START
G1 F7200
G1 X50.616 Y111.907 E-.96
;WIPE_END
G1 Z.4 F720
G1 X67.453 Y118.445 F9000
G1 Z.2 F720
G1 E3.2 F2400
M204 P600
G1 F1200
G1 X59.128 Y118.445 E.26102
G1 X66.504 Y107.912 E.40318
G1 X67.453 Y107.912 E.02976
G1 X67.453 Y118.388 E.32847
M204 P1000
G1 X67.453 Y118.388 F9000
G1 X66.956 Y118.275
M204 P600
G1 F1200
G1 X66.956 Y108.251 E.3143
G2 X66.537 Y108.455 I-.11 J.306 E.01628
G1 X66.537 Y118.105 E.30257
G1 X66.118 Y118.105 E.01314
G1 X66.118 Y109.054 E.28379
G1 X65.699 Y109.652 E.02289
G1 X65.699 Y118.105 E.26504
G1 X65.28 Y118.105 E.01314
G1 X65.28 Y110.25 E.24629
G1 X64.861 Y110.849 E.02292
G1 X64.861 Y118.105 E.22751
G1 X64.442 Y118.105 E.01314
G1 X64.442 Y111.447 E.20876
G1 X64.023 Y112.046 E.02292
G1 X64.023 Y118.105 E.18998
G1 X63.604 Y118.105 E.01314
G1 X63.604 Y112.644 E.17123
G1 X63.185 Y113.242 E.02289
G1 X63.185 Y118.105 E.15248
G1 X62.766 Y118.105 E.01314
G1 X62.766 Y113.841 E.13369
G1 X62.348 Y114.439 E.02288
G1 X62.348 Y118.105 E.11494
G1 X61.929 Y118.105 E.01314
G1 X61.929 Y115.037 E.09619
G1 X61.51 Y115.636 E.02292
G1 X61.51 Y118.105 E.07741
G1 X61.091 Y118.105 E.01314
G1 X61.091 Y116.234 E.05866
G1 X60.672 Y116.832 E.02289
G1 X60.672 Y118.105 E.03991
G1 X60.253 Y118.105 E.01314
G1 X60.253 Y117.431 E.02113
G2 X59.834 Y118.275 I.779 J.913 E.03036
M204 P1000
G1 E-2.24 F4200
;WIPE_START
G1 F7200
G3 X60.253 Y117.431 I1.198 J.069 E-.53661
G1 X60.253 Y118.105 E-.37351
G1 X60.343 Y118.105 E-.04988
;WIPE_END
G1 Z.4 F720
G1 X46.593 Y137.92 F9000
G1 Z.2 F720
G1 E3.2 F2400
M204 P600
G1 F1200
G1 X46.593 Y146.258 E.26143
G1 X44.275 Y146.258 E.07268
G1 X44.275 Y148.576 E.07268
G1 X37.165 Y148.576 E.22293
G1 X36.642 Y146.438 E.06901
G2 X39.496 Y145.948 I.659 J-4.721 E.09225
G2 X40.563 Y144.959 I-1.881 J-3.099 E.04593
G1 X45.691 Y137.636 E.28031
G1 X46.539 Y137.903 E.02788
